svgs/solid/image-polaroid.svg

<svg xmlns="http://www.w3.org/2000/svg" viewBox="0 0 448 512"><!--! Font Awesome Pro 6.0.0-alpha3 by @fontawesome - https://fontawesome.com License - https://fontawesome.com/license (Commercial License) --><path d="M145.7 230.6l-46.67 64c-3.549 4.863-4.064 11.31-1.334 16.68C100.5 316.6 105.1 320 112 320h224c5.9 0 11.32-3.246 14.11-8.449c2.783-5.203 2.479-11.52-.7949-16.43l-85.33-128C261 162.7 256 160 250.7 160s-10.35 2.672-13.31 7.125L183.8 247.4L171.6 230.6C168.6 226.4 163.8 224 158.7 224S148.8 226.4 145.7 230.6zM400 32h-352C21.6 32 0 53.6 0 80v352C0 458.4 21.6 480 48 480h352c26.4 0 48-21.6 48-48v-352C448 53.6 426.4 32 400 32zM384 352H64V96h320V352zM128 192c17.62 0 32-14.38 32-32S145.6 128 128 128S96 142.4 96 160S110.4 192 128 192z"/></svg>

<svg xmlns="http://www.w3.org/2000/svg" viewBox="0 0 448 512"><!-- Font Awesome Pro 6.0.0-alpha2 by @fontawesome - https://fontawesome.com License - https://fontawesome.com/license (Commercial License) --><path d="M145.738 230.574L99.072 294.574C95.523 299.437 95.008 305.883 97.738 311.25C100.467 316.621 105.979 320 112 320H336C341.9 320 347.322 316.754 350.107 311.551C352.891 306.348 352.586 300.035 349.312 295.125L263.979 167.125C261.012 162.672 256.016 160 250.666 160S240.32 162.672 237.354 167.125L183.85 247.383L171.594 230.574C168.582 226.441 163.777 224 158.666 224S148.75 226.441 145.738 230.574ZM400 32H48C21.6 32 0 53.602 0 80V432C0 458.398 21.6 480 48 480H400C426.4 480 448 458.398 448 432V80C448 53.602 426.4 32 400 32ZM384 352H64V96H384V352ZM128 192C145.625 192 160 177.625 160 160S145.625 128 128 128S96 142.375 96 160S110.375 192 128 192Z"/></svg>
